X: 20951
T: VICTORIA'S SETT (tune 4)
C:
%R: jig
B: Elias Howe "The Musician's Companion" 1843 p.95 #1
S: http://imslp.org/wiki/The_Musician's_Companion_(Howe,_Elias)
Z: 2015 John Chambers <jc:trillian.mit.edu>
N: The 2nd strain has a final repeat, but no initial repeat; not fixed.
M: 6/8
L: 1/8
K: F
% - - - - - - - - - - - - - - - - - - - - - - - - - - - - -
V: 1 name="4"
C |\
A2A ABA | GFG F3 | E2F G2F | F2G A2F |\
A2A ABA | GFG F3 | B2A G2F | EDE F2 H|]
C |\
G2G E2C | F2A G2z | GAG E2C | FGA G2G |\
c2c =B2B | AGA E2E | F2F EAG | FED "^D.C."C2 :|
% - - - - - - - - - - Dance description - - - - - - - - - -
%%begintext align
%% First two give right hands across,
%% left hand back,
%% balance four in a line,
%% half promenade,
%% ladies forward and back,
%% gentlemen the same,
%% balance four,
%% half right and left to place,
%% next two, &c.
%%endtext
% - - - - - - - - - - - - - - - - - - - - - - - - - - - - -
%%sep 1 1 300

%%sep 1 1 500

